src/images/iconcolor.svg

<svg width="25" height="25" viewBox="0 0 25 25" fill="none" xmlns="http://www.w3.org/2000/svg">
<path fill-rule="evenodd" clip-rule="evenodd" d="M22.3252 0.667969H3.65882C2.19217 0.667969 0.992188 1.86797 0.992188 3.33464V22.0013C0.992188 23.468 2.19217 24.668 3.65882 24.668H22.3252C23.7919 24.668 24.9919 23.468 24.9919 22.0013V3.33464C24.9919 1.86797 23.7919 0.667969 22.3252 0.667969ZM22.3252 22.0013H3.65882V3.33464H22.3252V22.0013ZM6.32545 10.0013H8.99208V19.3346H6.32545V10.0013ZM11.6587 6.0013H14.3253V19.3346H11.6587V6.0013ZM16.992 14.0013H19.6586V19.3346H16.992V14.0013Z" fill="#020201"/>
</svg>

<svg width="25" height="25" viewBox="0 0 25 25" fill="none" xmlns="http://www.w3.org/2000/svg"><path fill-rule="evenodd" clip-rule="evenodd" d="M22.325.668H3.66A2.674 2.674 0 0 0 .992 3.335V22c0 1.467 1.2 2.667 2.667 2.667h18.666c1.467 0 2.667-1.2 2.667-2.667V3.335c0-1.467-1.2-2.667-2.667-2.667zm0 21.333H3.66V3.335h18.666V22zm-16-12h2.667v9.334H6.325V10zm5.334-4h2.666v13.334H11.66V6zm5.333 8h2.667v5.334h-2.667V14z" fill="#020201"/></svg>
